src/24/actions/gnumeric-formulaguru.svg

<svg xmlns="http://www.w3.org/2000/svg" viewBox="0 0 24 24">
  <defs id="defs3051">
    <style type="text/css" id="current-color-scheme">
      .ColorScheme-Text {
        color:#5d656b;
      }
      </style>
  </defs>
 <path style="fill:currentColor;fill-opacity:1;stroke:none" 
     d="M 11 4 C 9.343146 4 8 5.3431 8 7 L 8 9 L 6 9 L 6 10 L 8 10 L 8 11 L 8 20 L 9 20 L 9 10 L 10 10 L 11 10 L 11 9 L 10 9 L 9 9 L 9 7 C 9 5.8954305 9.8954305 5 11 5 L 12 5 L 12 4 L 11 4 z M 14.742188 14 L 14 14.732422 L 16.292969 17 L 14 19.267578 L 14.742188 20 L 17.035156 17.732422 L 19.257812 19.931641 L 20 19.199219 L 17.775391 17 L 20 14.800781 L 19.257812 14.068359 L 17.035156 16.267578 L 14.742188 14 z "
     class="ColorScheme-Text"
     />
</svg>

<svg xmlns="http://www.w3.org/2000/svg" viewBox="0 0 24 24"><path d="M11 4a3 3 0 0 0-3 3v2H6v1h2v10h1V10h2V9H9V7a2 2 0 0 1 2-2h1V4h-1zm3.742 10l-.742.732L16.293 17 14 19.268l.742.732 2.293-2.268 2.223 2.2.742-.733L17.775 17 20 14.8l-.742-.732-2.223 2.2L14.742 14z" fill="currentColor" color="#5d656b"/></svg>
